; generated by PrusaSlicer 2.6.1+MacOS-x64 on 2023-12-10 at 18:20:38 UTC


;
;
; 

; external perimeters extrusion width = 0.45mm
; perimeters extrusion width = 0.45mm
; infill extrusion width = 0.45mm
; solid infill extrusion width = 0.45mm
; top infill extrusion width = 0.40mm
; support material extrusion width = 0.35mm
; first layer extrusion width = 0.42mm

M73 P0 R201
M73 Q0 S207
M201 X1000 Y1000 Z200 E5000 ; sets maximum accelerations, mm/sec^2
M203 X200 Y200 Z12 E120 ; sets maximum feedrates, mm / sec
M204 S1250 T1250 ; sets acceleration (S) and retract acceleration (R), mm/sec^2
M205 X8.00 Y8.00 Z0.40 E4.50 ; sets the jerk limits, mm/sec
M205 S0 T0 ; sets the minimum extruding and travel feed rate, mm/sec
;TYPE:Custom
M862.3 P "MK3S" ; printer model check
M862.1 P0.4 ; nozzle diameter check
M115 U3.13.0 ; tell printer latest fw version
G90 ; use absolute coordinates
M83 ; extruder relative mode
M104 S215 ; set extruder temp
M140 S60 ; set bed temp
M190 S60 ; wait for bed temp
M109 S215 ; wait for extruder temp
G28 W ; home all without mesh bed level
G80 ; mesh bed leveling

G1 Z0.2 F720
G1 Y-3 F1000 ; go outside print area
G92 E0
G1 X60 E9 F1000 ; intro line
G1 X100 E12.5 F1000 ; intro line

G92 E0
M221 S95

; Don't change E values below. Excessive value can damage the printer.

M907 E538 ; set extruder motor current
G21 ; set units to millimeters
G90 ; use absolute coordinates
M83 ; use relative distances for extrusion
M900 K0.05 ; Filament gcode LA 1.5
M900 K30 ; Filament gcode LA 1.0
M107
;LAYER_CHANGE
;Z:0.2
;HEIGHT:0.2
;BEFORE_LAYER_CHANGE
G92 E0.0
;0.2


G1 E-.8 F2100
M73 P0 R200
G1 Z.4 F720
;AFTER_LAYER_CHANGE
;0.2
G1 X60.854 Y70.023 F10800
G1 Z.2 F720
G1 E.8 F2100
M204 S800
;TYPE:Skirt/Brim
;WIDTH:0.42
G1 F1200
G1 X64.187 Y68.034 E.1217
G1 X65.038 Y67.727 E.02837
G1 X170.137 Y51.259 E3.33551
G1 X187.928 Y51.231 E.55783
M73 Q0 S206
G1 X189.235 Y51.622 E.04277
G1 X190.111 Y52.668 E.04278
G1 X190.305 Y53.608 E.03009
G1 X190.3 Y82.714 E.9126
G1 X185.686 Y156.54 E2.31928
G1 X185.213 Y157.82 E.04279
G1 X184.115 Y158.63 E.04278
G1 X183.313 Y158.769 E.02552
G1 X62.072 Y158.769 E3.80143
G1 X60.765 Y158.378 E.04277
G1 X59.889 Y157.332 E.04278
G1 X59.695 Y156.392 E.03009
G1 X59.695 Y72.065 E2.64401
G1 X60.087 Y70.758 E.04278
G1 X60.811 Y70.065 E.03142
M204 S1000
; printing object project_1357_cad_file_9822466.STL id:0 copy 0
;WIPE_START
G1 F8640
G1 X63.78 Y68.279 E-.8
;WIPE_END
G1 Z.6 F720
G1 X173.449 Y63.033 F10800
G1 Z.2 F720
G1 E.8 F2100
M204 S800
;TYPE:Support material interface
;WIDTH:0.35
G1 F1200
G1 X173.449 Y63.473 E.01123
G1 X173.679 Y63.473 E.00587
G1 X173.68 Y58.858 E.11784
G1 X174.187 Y58.858 E.01295
G1 X174.187 Y62.859 E.10216
G1 X174.567 Y62.411 E.015
G1 X174.694 Y62.196 E.00638
G1 X174.694 Y58.858 E.08523
G1 X175.201 Y58.858 E.01295
G1 X175.201 Y61.422 E.06547
G1 X175.425 Y61.126 E.00948
G1 X175.661 Y60.756 E.01121
G1 X175.708 Y60.643 E.00312
G1 X175.708 Y58.858 E.04558
G1 X175.756 Y58.858 E.00123
G1 X175.756 Y56.551 E.05891
G1 X176.215 Y56.551 E.01172
G1 X176.215 Y59.617 E.07829
G1 X176.115 Y59.76 E.00446
G1 X175.954 Y60.084 E.00924
M204 S1000
G1 X176.418 Y60.013 F10800
M204 S800
;TYPE:Support material
;WIDTH:0.42
G1 F1200
G1 X176.344 Y60.116 E.00398
G1 X176.499 Y59.845 E.00979
G1 X176.443 Y59.962 E.00407
M204 S1000
G1 X176.454 Y59.152 F10800
M204 S800
;TYPE:Support material interface
;WIDTH:0.35
G1 F1200
G1 X176.502 Y59.052 E.00283
G1 X176.646 Y58.214 E.02171
G1 X176.722 Y57.9 E.00825
G1 X176.722 Y56.551 E.03445
G1 X177.229 Y56.551 E.01295
G1 X177.229 Y56.951 E.01021
G1 X177.736 Y56.951 E.01295
G1 X177.736 Y56.551 E.01021
G1 X178.063 Y56.551 E.00835
G1 X178.063 Y56.951 E.01021
G1 X177.89 Y56.951 E.00442
M204 S1000
G1 X177.505 Y57.584 F10800
M204 S800
;TYPE:Support material
;WIDTH:0.42
G1 F1200
G1 X177.289 Y57.999 E.01467
G1 X177.047 Y58.997 E.0322
G1 X176.645 Y59.594 E.02257
G1 X176.852 Y59.164 E.01496
G1 X177.004 Y58.28 E.02812
G1 X177.232 Y57.341 E.0303
G1 X177.264 Y57.315 E.00129
G1 X177.585 Y57.315 E.01006
G1 X177.521 Y57.53 E.00703
M204 S1000
;WIPE_START
G1 F8640
G1 X177.585 Y57.315 E-.0518
G1 X177.264 Y57.315 E-.07412
G1 X177.232 Y57.341 E-.00952
G1 X177.004 Y58.28 E-.22312
G1 X176.852 Y59.164 E-.20711
G1 X176.645 Y59.594 E-.11019
G1 X176.945 Y59.148 E-.12414
;WIPE_END
G1 Z.6 F720
G1 X180.625 Y56.551 F10800
G1 Z.2 F720
G1 E.8 F2100
M204 S800
;TYPE:Support material interface
;WIDTH:0.35
G1 F1200
G1 X180.37 Y56.551 E.00651
G1 X180.37 Y56.951 E.01021
G1 X180.779 Y56.951 E.01044
G1 X180.779 Y56.551 E.01021
G1 X181.132 Y56.551 E.00901
M204 S1000
G1 X180.882 Y57.315 F10800
M204 S800
;TYPE:Support material
;WIDTH:0.42
G1 F1200
G1 X180.917 Y57.35 E.00155
G1 X180.918 Y57.567 E.0068
G1 X180.918 Y80.819 E.72905
G1 X180.567 Y81.382 E.0208
G1 X180.567 Y63.648 E.55604
G1 X180.547 Y57.315 E.19857
G1 X180.825 Y57.315 E.00872
M204 S1000
;WIPE_START
G1 F8640
G1 X180.547 Y57.315 E-.06419
G1 X180.557 Y60.502 E-.73581
;WIPE_END
G1 Z.6 F720
G1 X181.04 Y81.315 F10800
G1 Z.2 F720
G1 E.8 F2100
M204 S800
;TYPE:Support material interface
;WIDTH:0.35
G1 F1200
G1 X180.779 Y81.73 E.01252
G1 X180.779 Y81.929 E.00508
G1 X181.286 Y81.929 E.01295
G1 X181.286 Y56.551 E.648
G1 X181.793 Y56.551 E.01295
G1 X181.793 Y81.929 E.648
G1 X182.3 Y81.929 E.01295
G1 X182.3 Y56.551 E.648
G1 X182.677 Y56.551 E.00963
G1 X182.677 Y81.929 E.648
G1 X182.453 Y81.929 E.00572
M204 S1000
;WIPE_START
G1 F8640
G1 X182.677 Y81.929 E-.05172
G1 X182.677 Y78.688 E-.74828
;WIPE_END
G1 Z.6 F720
G1 X187.928 Y82.566 F10800
G1 Z.2 F720
G1 E.8 F2100
M204 S800
;TYPE:Support material
;WIDTH:0.42
G1 F1200
G1 X185.62 Y82.566 E.07237
G1 X185.62 Y84.873 E.07233
G1 X183.313 Y84.873 E.07233
G1 X183.313 Y156.392 E2.24243
G1 X62.072 Y156.392 E3.80143
G1 X62.072 Y72.065 E2.64401
G1 X64.926 Y72.065 E.08949
G1 X64.926 Y152.824 E2.53214
G1 X65.207 Y153.105 E.01246
G1 X179.256 Y153.105 E3.57593
G1 X179.537 Y152.824 E.01246
M73 P0 R199
G1 X179.537 Y86.595 E2.07656
G1 X179.577 Y85.723 E.02737
M73 Q0 S205
G1 X179.684 Y84.905 E.02587
G1 X179.864 Y84.096 E.02599
G1 X180.121 Y83.275 E.02697
G1 X180.408 Y82.573 E.02378
G1 X180.546 Y82.293 E.00979
G1 X183.041 Y82.293 E.07823
G1 X183.041 Y56.188 E.8185
G1 X180.006 Y56.188 E.09516
G1 X180.006 Y56.895 E.02217
G1 X178.426 Y56.895 E.04954
G1 X178.426 Y56.188 E.02217
G1 X175.392 Y56.188 E.09513
G1 X175.392 Y58.495 E.07233
G1 X173.085 Y58.495 E.07233
G1 X173.085 Y63.836 E.16746
G1 X173.526 Y63.836 E.01383
G1 X173.467 Y63.913 E.00304
G1 X172.028 Y65.329 E.0633
G1 X171.346 Y65.904 E.02797
G1 X170.506 Y66.552 E.03326
G1 X170.505 Y53.608 E.40585
G1 X187.928 Y53.608 E.54629
G1 X187.928 Y82.509 E.90617
M204 S1000
G1 X187.428 Y82.396 F10800
M204 S800
G1 F1200
G1 X187.428 Y53.947 E.892
G1 X187.009 Y53.947 E.01314
G1 X187.009 Y82.226 E.88667
G1 X186.59 Y82.226 E.01314
G1 X186.59 Y53.947 E.88667
G1 X186.171 Y53.947 E.01314
G1 X186.171 Y82.226 E.88667
G1 X185.752 Y82.226 E.01314
G1 X185.752 Y53.947 E.88667
G1 X185.333 Y53.947 E.01314
G1 X185.333 Y82.226 E.88667
G1 X185.281 Y82.226 E.00163
G1 X185.281 Y84.533 E.07233
G1 X184.914 Y84.533 E.01151
G1 X184.914 Y53.947 E.959
G1 X184.495 Y53.947 E.01314
G1 X184.495 Y84.533 E.959
G1 X184.076 Y84.533 E.01314
G1 X184.076 Y53.947 E.959
G1 X183.657 Y53.947 E.01314
G1 X183.657 Y84.533 E.959
G1 X183.238 Y84.533 E.01314
G1 X183.238 Y53.947 E.959
G1 X182.819 Y53.947 E.01314
G1 X182.819 Y55.848 E.0596
G1 X182.4 Y55.848 E.01314
G1 X182.4 Y53.947 E.0596
G1 X181.981 Y53.947 E.01314
G1 X181.981 Y55.848 E.0596
G1 X181.562 Y55.848 E.01314
G1 X181.562 Y53.947 E.0596
G1 X181.143 Y53.947 E.01314
G1 X181.143 Y55.848 E.0596
G1 X180.724 Y55.848 E.01314
G1 X180.724 Y53.947 E.0596
G1 X180.305 Y53.947 E.01314
G1 X180.305 Y55.848 E.0596
G1 X179.886 Y55.848 E.01314
G1 X179.886 Y53.947 E.0596
G1 X179.467 Y53.947 E.01314
G1 X179.467 Y56.556 E.0818
G1 X179.048 Y56.556 E.01314
G1 X179.048 Y53.947 E.0818
G1 X178.629 Y53.947 E.01314
G1 X178.629 Y55.848 E.0596
G1 X178.21 Y55.848 E.01314
G1 X178.21 Y53.947 E.0596
G1 X177.791 Y53.947 E.01314
G1 X177.791 Y55.848 E.0596
G1 X177.372 Y55.848 E.01314
G1 X177.372 Y53.947 E.0596
G1 X176.953 Y53.947 E.01314
G1 X176.953 Y55.848 E.0596
G1 X176.534 Y55.848 E.01314
G1 X176.534 Y53.947 E.0596
G1 X176.115 Y53.947 E.01314
G1 X176.115 Y55.848 E.0596
G1 X175.696 Y55.848 E.01314
G1 X175.696 Y53.947 E.0596
G1 X175.277 Y53.947 E.01314
G1 X175.277 Y55.848 E.0596
G1 X175.053 Y55.848 E.00702
G1 X175.053 Y58.155 E.07233
G1 X174.858 Y58.155 E.00611
G1 X174.858 Y53.947 E.13194
G1 X174.439 Y53.947 E.01314
G1 X174.439 Y58.155 E.13194
G1 X174.02 Y58.155 E.01314
G1 X174.02 Y53.947 E.13194
G1 X173.601 Y53.947 E.01314
G1 X173.601 Y58.155 E.13194
G1 X173.182 Y58.155 E.01314
G1 X173.182 Y53.947 E.13194
G1 X172.763 Y53.947 E.01314
G1 X172.746 Y64.15 E.31991
G1 X172.344 Y64.547 E.01771
G1 X172.344 Y53.947 E.33236
G1 X171.925 Y53.947 E.01314
G1 X171.925 Y64.941 E.34471
G1 X171.794 Y65.083 E.00606
G1 X171.506 Y65.325 E.01179
G1 X171.506 Y53.947 E.35675
G1 X171.087 Y53.947 E.01314
G1 X171.087 Y65.891 E.3745
M204 S1000
;WIPE_START
G1 F8640
G1 X171.087 Y62.426 E-.8
;WIPE_END
G1 Z.6 F720
G1 X182.819 Y156.222 F10800
G1 Z.2 F720
G1 E.8 F2100
M204 S800
G1 F1200
G1 X182.819 Y82.632 E2.30736
G1 X182.4 Y82.632 E.01314
G1 X182.4 Y156.053 E2.30206
G1 X181.981 Y156.053 E.01314
G1 X181.981 Y82.632 E2.30206
G1 X181.562 Y82.632 E.01314
G1 X181.562 Y156.053 E2.30206
G1 X181.143 Y156.053 E.01314
G1 X181.143 Y82.632 E2.30206
G1 X180.759 Y82.632 E.01204
G1 X180.724 Y82.701 E.00243
G1 X180.724 Y156.053 E2.2999
G1 X180.305 Y156.053 E.01314
M73 P1 R199
G1 X180.305 Y83.82 E2.26481
G1 X180.193 Y84.176 E.0117
M73 P1 R198
M73 Q1 S205
G1 X180.019 Y84.964 E.0253
G1 X179.914 Y85.76 E.02517
G1 X179.886 Y86.385 E.01962
G1 X179.886 Y156.053 E2.18439
G1 X179.467 Y156.053 E.01314
M73 Q1 S204
G1 X179.467 Y153.374 E.084
G1 X179.396 Y153.444 E.00313
G1 X179.048 Y153.444 E.01091
G1 X179.048 Y156.053 E.0818
G1 X178.629 Y156.053 E.01314
G1 X178.629 Y153.444 E.0818
G1 X178.21 Y153.444 E.01314
G1 X178.21 Y156.053 E.0818
G1 X177.791 Y156.053 E.01314
G1 X177.791 Y153.444 E.0818
G1 X177.372 Y153.444 E.01314
G1 X177.372 Y156.053 E.0818
G1 X176.953 Y156.053 E.01314
G1 X176.953 Y153.444 E.0818
G1 X176.534 Y153.444 E.01314
G1 X176.534 Y156.053 E.0818
G1 X176.115 Y156.053 E.01314
G1 X176.115 Y153.444 E.0818
G1 X175.696 Y153.444 E.01314
G1 X175.696 Y156.053 E.0818
G1 X175.277 Y156.053 E.01314
G1 X175.277 Y153.444 E.0818
G1 X174.858 Y153.444 E.01314
G1 X174.858 Y156.053 E.0818
G1 X174.439 Y156.053 E.01314
G1 X174.439 Y153.444 E.0818
G1 X174.02 Y153.444 E.01314
G1 X174.02 Y156.053 E.0818
G1 X173.601 Y156.053 E.01314
G1 X173.601 Y153.444 E.0818
G1 X173.182 Y153.444 E.01314
G1 X173.182 Y156.053 E.0818
G1 X172.763 Y156.053 E.01314
G1 X172.763 Y153.444 E.0818
G1 X172.344 Y153.444 E.01314
G1 X172.344 Y156.053 E.0818
G1 X171.925 Y156.053 E.01314
G1 X171.925 Y153.444 E.0818
G1 X171.506 Y153.444 E.01314
G1 X171.506 Y156.053 E.0818
G1 X171.087 Y156.053 E.01314
G1 X171.087 Y153.444 E.0818
G1 X170.668 Y153.444 E.01314
G1 X170.668 Y156.053 E.0818
G1 X170.25 Y156.053 E.01311
G1 X170.25 Y153.444 E.0818
G1 X169.831 Y153.444 E.01314
G1 X169.831 Y156.053 E.0818
G1 X169.412 Y156.053 E.01314
G1 X169.412 Y153.444 E.0818
G1 X168.993 Y153.444 E.01314
G1 X168.993 Y156.053 E.0818
G1 X168.574 Y156.053 E.01314
G1 X168.574 Y153.444 E.0818
G1 X168.155 Y153.444 E.01314
G1 X168.155 Y156.053 E.0818
G1 X167.736 Y156.053 E.01314
G1 X167.736 Y153.444 E.0818
G1 X167.317 Y153.444 E.01314
G1 X167.317 Y156.053 E.0818
G1 X166.898 Y156.053 E.01314
G1 X166.898 Y153.444 E.0818
G1 X166.479 Y153.444 E.01314
G1 X166.479 Y156.053 E.0818
G1 X166.06 Y156.053 E.01314
G1 X166.06 Y153.444 E.0818
G1 X165.641 Y153.444 E.01314
G1 X165.641 Y156.053 E.0818
G1 X165.222 Y156.053 E.01314
G1 X165.222 Y153.444 E.0818
G1 X164.803 Y153.444 E.01314
G1 X164.803 Y156.053 E.0818
G1 X164.384 Y156.053 E.01314
G1 X164.384 Y153.444 E.0818
G1 X163.965 Y153.444 E.01314
G1 X163.965 Y156.053 E.0818
G1 X163.546 Y156.053 E.01314
G1 X163.546 Y153.444 E.0818
G1 X163.127 Y153.444 E.01314
G1 X163.127 Y156.053 E.0818
G1 X162.708 Y156.053 E.01314
G1 X162.708 Y153.444 E.0818
G1 X162.289 Y153.444 E.01314
G1 X162.289 Y156.053 E.0818
G1 X161.87 Y156.053 E.01314
G1 X161.87 Y153.444 E.0818
G1 X161.451 Y153.444 E.01314
G1 X161.451 Y156.053 E.0818
G1 X161.032 Y156.053 E.01314
G1 X161.032 Y153.444 E.0818
G1 X160.613 Y153.444 E.01314
G1 X160.613 Y156.053 E.0818
G1 X160.194 Y156.053 E.01314
G1 X160.194 Y153.444 E.0818
G1 X159.775 Y153.444 E.01314
G1 X159.775 Y156.053 E.0818
G1 X159.356 Y156.053 E.01314
G1 X159.356 Y153.444 E.0818
G1 X158.937 Y153.444 E.01314
G1 X158.937 Y156.053 E.0818
G1 X158.518 Y156.053 E.01314
G1 X158.518 Y153.444 E.0818
G1 X158.099 Y153.444 E.01314
G1 X158.099 Y156.053 E.0818
G1 X157.68 Y156.053 E.01314
G1 X157.68 Y153.444 E.0818
G1 X157.261 Y153.444 E.01314
G1 X157.261 Y156.053 E.0818
G1 X156.842 Y156.053 E.01314
G1 X156.842 Y153.444 E.0818
G1 X156.423 Y153.444 E.01314
G1 X156.423 Y156.053 E.0818
G1 X156.004 Y156.053 E.01314
G1 X156.004 Y153.444 E.0818
G1 X155.585 Y153.444 E.01314
G1 X155.585 Y156.053 E.0818
G1 X155.166 Y156.053 E.01314
G1 X155.166 Y153.444 E.0818
G1 X154.747 Y153.444 E.01314
G1 X154.747 Y156.053 E.0818
G1 X154.328 Y156.053 E.01314
G1 X154.328 Y153.444 E.0818
G1 X153.909 Y153.444 E.01314
G1 X153.909 Y156.053 E.0818
G1 X153.49 Y156.053 E.01314
G1 X153.49 Y153.444 E.0818
G1 X153.071 Y153.444 E.01314
G1 X153.071 Y156.053 E.0818
G1 X152.652 Y156.053 E.01314
G1 X152.652 Y153.444 E.0818
G1 X152.234 Y153.444 E.01311
G1 X152.234 Y156.053 E.0818
G1 X151.815 Y156.053 E.01314
G1 X151.815 Y153.444 E.0818
G1 X151.396 Y153.444 E.01314
G1 X151.396 Y156.053 E.0818
G1 X150.977 Y156.053 E.01314
G1 X150.977 Y153.444 E.0818
G1 X150.558 Y153.444 E.01314
G1 X150.558 Y156.053 E.0818
G1 X150.139 Y156.053 E.01314
G1 X150.139 Y153.444 E.0818
G1 X149.72 Y153.444 E.01314
G1 X149.72 Y156.053 E.0818
G1 X149.301 Y156.053 E.01314
G1 X149.301 Y153.444 E.0818
G1 X148.882 Y153.444 E.01314
G1 X148.882 Y156.053 E.0818
G1 X148.463 Y156.053 E.01314
G1 X148.463 Y153.444 E.0818
G1 X148.044 Y153.444 E.01314
G1 X148.044 Y156.053 E.0818
G1 X147.625 Y156.053 E.01314
G1 X147.625 Y153.444 E.0818
G1 X147.206 Y153.444 E.01314
G1 X147.206 Y156.053 E.0818
G1 X146.787 Y156.053 E.01314
G1 X146.787 Y153.444 E.0818
G1 X146.368 Y153.444 E.01314
G1 X146.368 Y156.053 E.0818
G1 X145.949 Y156.053 E.01314
G1 X145.949 Y153.444 E.0818
G1 X145.53 Y153.444 E.01314
G1 X145.53 Y156.053 E.0818
G1 X145.111 Y156.053 E.01314
G1 X145.111 Y153.444 E.0818
G1 X144.692 Y153.444 E.01314
G1 X144.692 Y156.053 E.0818
G1 X144.273 Y156.053 E.01314
G1 X144.273 Y153.444 E.0818
G1 X143.854 Y153.444 E.01314
G1 X143.854 Y156.053 E.0818
G1 X143.435 Y156.053 E.01314
G1 X143.435 Y153.444 E.0818
G1 X143.016 Y153.444 E.01314
G1 X143.016 Y156.053 E.0818
G1 X142.597 Y156.053 E.01314
G1 X142.597 Y153.444 E.0818
G1 X142.178 Y153.444 E.01314
G1 X142.178 Y156.053 E.0818
G1 X141.759 Y156.053 E.01314
G1 X141.759 Y153.444 E.0818
G1 X141.34 Y153.444 E.01314
G1 X141.34 Y156.053 E.0818
G1 X140.921 Y156.053 E.01314
G1 X140.921 Y153.444 E.0818
G1 X140.502 Y153.444 E.01314
G1 X140.502 Y156.053 E.0818
G1 X140.083 Y156.053 E.01314
G1 X140.083 Y153.444 E.0818
G1 X139.664 Y153.444 E.01314
G1 X139.664 Y156.053 E.0818
G1 X139.245 Y156.053 E.01314
G1 X139.245 Y153.444 E.0818
G1 X138.826 Y153.444 E.01314
G1 X138.826 Y156.053 E.0818
G1 X138.407 Y156.053 E.01314
G1 X138.407 Y153.444 E.0818
G1 X137.988 Y153.444 E.01314
G1 X137.988 Y156.053 E.0818
G1 X137.569 Y156.053 E.01314
G1 X137.569 Y153.444 E.0818
G1 X137.15 Y153.444 E.01314
G1 X137.15 Y156.053 E.0818
G1 X136.731 Y156.053 E.01314
G1 X136.731 Y153.444 E.0818
G1 X136.312 Y153.444 E.01314
G1 X136.312 Y156.053 E.0818
G1 X135.893 Y156.053 E.01314
G1 X135.893 Y153.444 E.0818
G1 X135.474 Y153.444 E.01314
G1 X135.474 Y156.053 E.0818
G1 X135.055 Y156.053 E.01314
G1 X135.055 Y153.444 E.0818
G1 X134.636 Y153.444 E.01314
G1 X134.636 Y156.053 E.0818
G1 X134.217 Y156.053 E.01314
G1 X134.217 Y153.444 E.0818
G1 X133.799 Y153.444 E.01311
G1 X133.799 Y156.053 E.0818
