; generated by PrusaSlicer 2.6.1+MacOS-x64 on 2023-12-13 at 19:15:30 UTC


;
;
; 

; external perimeters extrusion width = 0.45mm
; perimeters extrusion width = 0.45mm
; infill extrusion width = 0.45mm
; solid infill extrusion width = 0.45mm
; top infill extrusion width = 0.40mm
; first layer extrusion width = 0.42mm

; external perimeters extrusion width = 0.45mm
; perimeters extrusion width = 0.45mm
; infill extrusion width = 0.45mm
; solid infill extrusion width = 0.45mm
; top infill extrusion width = 0.40mm
; first layer extrusion width = 0.42mm

; external perimeters extrusion width = 0.45mm
; perimeters extrusion width = 0.45mm
; infill extrusion width = 0.45mm
; solid infill extrusion width = 0.45mm
; top infill extrusion width = 0.40mm
; first layer extrusion width = 0.42mm

; external perimeters extrusion width = 0.45mm
; perimeters extrusion width = 0.45mm
; infill extrusion width = 0.45mm
; solid infill extrusion width = 0.45mm
; top infill extrusion width = 0.40mm
; first layer extrusion width = 0.42mm

M73 P0 R13
M73 Q0 S13
M201 X1000 Y1000 Z200 E5000 ; sets maximum accelerations, mm/sec^2
M203 X200 Y200 Z12 E120 ; sets maximum feedrates, mm / sec
M204 S1250 T1250 ; sets acceleration (S) and retract acceleration (R), mm/sec^2
M205 X8.00 Y8.00 Z0.40 E4.50 ; sets the jerk limits, mm/sec
M205 S0 T0 ; sets the minimum extruding and travel feed rate, mm/sec
;TYPE:Custom
M862.3 P "MK3S" ; printer model check
M862.1 P0.4 ; nozzle diameter check
M115 U3.13.0 ; tell printer latest fw version
G90 ; use absolute coordinates
M83 ; extruder relative mode
M104 S215 ; set extruder temp
M140 S60 ; set bed temp
M190 S60 ; wait for bed temp
M109 S215 ; wait for extruder temp
G28 W ; home all without mesh bed level
G80 ; mesh bed leveling

G1 Z0.2 F720
G1 Y-3 F1000 ; go outside print area
G92 E0
G1 X60 E9 F1000 ; intro line
G1 X100 E12.5 F1000 ; intro line

G92 E0
M221 S95

; Don't change E values below. Excessive value can damage the printer.
M907 E430 ; set extruder motor current
G21 ; set units to millimeters
G90 ; use absolute coordinates
M83 ; use relative distances for extrusion
M900 K0.05 ; Filament gcode LA 1.5
M900 K30 ; Filament gcode LA 1.0
M107
;LAYER_CHANGE
;Z:0.2
;HEIGHT:0.2
;BEFORE_LAYER_CHANGE
G92 E0.0
;0.2


G1 E-.8 F2100
G1 Z.4 F720
;AFTER_LAYER_CHANGE
;0.2
G1 X60.854 Y69.891 F10800
G1 Z.2 F720
G1 E.8 F2100
M204 S800
;TYPE:Skirt/Brim
;WIDTH:0.42
G1 F1200
G1 X62.164 Y69.148 E.04722
G1 X63.034 Y68.866 E.02868
G1 X63.619 Y68.754 E.01868
G1 X65.118 Y68.735 E.047
G1 X66.589 Y69.091 E.04745
G1 X67.455 Y69.5 E.03003
G1 X128.008 Y99.799 E2.12301
G1 X129.17 Y100.682 E.04576
M73 P1 R13
M73 Q1 S13
G1 X130.109 Y101.847 E.04692
G1 X130.734 Y103.222 E.04736
G1 X130.882 Y103.799 E.01868
G1 X131.014 Y105.027 E.03872
G1 X130.502 Y150.768 E1.43427
G1 X130.369 Y151.943 E.03708
G1 X129.883 Y153.372 E.04733
G1 X129.065 Y154.626 E.04694
G1 X127.947 Y155.648 E.04749
G1 X127.443 Y155.967 E.0187
G1 X126.063 Y156.534 E.04678
G1 X124.563 Y156.744 E.04749
G1 X123.434 Y156.663 E.03549
G1 X67.227 Y147.695 E1.78462
G1 X65.998 Y147.325 E.04024
M73 P2 R13
M73 Q2 S13
G1 X64.688 Y146.583 E.04721
M73 P2 R12
G1 X64.089 Y146.054 E.02506
G1 X63.257 Y145.059 E.04067
G1 X62.595 Y143.699 E.04743
G1 X62.3 Y142.37 E.04268
G1 X58.466 Y75.297 E2.10646
G1 X58.462 Y74.239 E.03317
G1 X58.761 Y72.774 E.04688
G1 X59.423 Y71.415 E.0474
G1 X60.255 Y70.42 E.04067
G1 X60.809 Y69.931 E.02317
M204 S1000
; printing object MicroServo_9g_Gear_Base_V4_-_Final.stl id:1 copy 0
;WIPE_START
G1 F8640
G1 X62.164 Y69.148 E-.36135
G1 X63.034 Y68.866 E-.21117
G1 X63.619 Y68.754 E-.13753
G1 X64.009 Y68.749 E-.08995
;WIPE_END
G1 Z.6 F720
G1 X61.628 Y74.669 F10800
G1 Z.2 F720
G1 E.8 F2100
M204 S800
;TYPE:Perimeter
;WIDTH:0.419999
G1 F1200
G1 X61.628 Y74.338 E.01038
G1 X61.803 Y73.659 E.02199
G1 X62.15 Y73.027 E.02261
G1 X62.635 Y72.511 E.0222
G1 X63.237 Y72.129 E.02235
G1 X63.918 Y71.908 E.02245
G1 X64.622 Y71.864 E.02212
G1 X65.303 Y71.994 E.02174
G1 X65.966 Y72.298 E.02287
G1 X66.523 Y72.758 E.02265
G1 X66.936 Y73.327 E.02204
G1 X67.132 Y73.822 E.01669
G1 X67.223 Y74.176 E.01146
G1 X67.282 Y74.757 E.01831
G1 X67.2 Y75.405 E.02048
G1 X66.936 Y76.073 E.02252
G1 X66.523 Y76.642 E.02204
G1 X65.964 Y77.104 E.02274
G1 X65.333 Y77.401 E.02187
G1 X64.622 Y77.537 E.0227
G1 X63.918 Y77.492 E.02212
G1 X63.237 Y77.271 E.02245
G1 X62.635 Y76.889 E.02235
G1 X62.15 Y76.373 E.0222
G1 X61.803 Y75.741 E.02261
G1 X61.628 Y75.063 E.02195
G1 X61.628 Y74.729 E.01047
M204 S1000
G1 X61.251 Y74.669 F10800
M204 S800
;TYPE:External perimeter
G1 F1200
G1 X61.251 Y74.29 E.01188
G1 X61.449 Y73.519 E.02496
G1 X61.842 Y72.804 E.02558
G1 X62.392 Y72.218 E.0252
G1 X63.075 Y71.785 E.02536
G1 X63.846 Y71.535 E.02541
G1 X64.646 Y71.484 E.02513
G1 X65.418 Y71.632 E.02465
G1 X66.168 Y71.976 E.02587
G1 X66.8 Y72.498 E.0257
G1 X67.269 Y73.144 E.02503
G1 X67.53 Y73.803 E.02222
G1 X67.597 Y74.129 E.01044
G1 X67.656 Y74.804 E.02124
G1 X67.568 Y75.5 E.022
G1 X67.269 Y76.256 E.02549
G1 X66.8 Y76.902 E.02503
G1 X66.168 Y77.425 E.02572
G1 X65.45 Y77.763 E.02488
G1 X64.646 Y77.916 E.02566
G1 X63.846 Y77.866 E.02513
G1 X63.075 Y77.615 E.02542
G1 X62.392 Y77.182 E.02536
G1 X61.842 Y76.596 E.0252
G1 X61.449 Y75.881 E.02558
G1 X61.251 Y75.11 E.02496
G1 X61.251 Y74.729 E.01195
M204 S1000
G1 X61.569 Y74.462 F10800
;WIPE_START
G1 F8640
G1 X61.251 Y74.29 E-.10137
G1 X61.449 Y73.519 E-.1838
G1 X61.842 Y72.804 E-.18839
G1 X62.392 Y72.218 E-.18557
G1 X62.907 Y71.891 E-.14087
;WIPE_END
G1 Z.6 F720
G1 X65.479 Y73.075 F10800
G1 Z.2 F720
G1 E.8 F2100
M204 S800
;TYPE:Perimeter
G1 F1200
G1 X65.542 Y73.108 E.00223
G1 X65.903 Y73.43 E.01517
G1 X66.174 Y73.832 E.0152
G1 X66.335 Y74.289 E.01519
G1 X66.378 Y74.771 E.01517
G1 X66.3 Y75.249 E.01519
G1 X66.105 Y75.693 E.0152
G1 X65.806 Y76.074 E.01519
G1 X65.422 Y76.368 E.01516
G1 X64.977 Y76.558 E.01517
G1 X64.498 Y76.632 E.0152
G1 X64.016 Y76.584 E.01519
G1 X63.561 Y76.417 E.0152
M73 P3 R12
G1 X63.162 Y76.143 E.01518
G1 X62.843 Y75.778 E.0152
G1 X62.678 Y75.477 E.01076
G1 X62.528 Y74.946 E.0173
G1 X62.54 Y74.388 E.0175
G1 X62.678 Y73.923 E.01521
G1 X62.927 Y73.508 E.01517
G1 X63.271 Y73.167 E.01519
G1 X63.689 Y72.923 E.01518
G1 X64.155 Y72.79 E.01519
G1 X64.58 Y72.777 E.01333
G1 X65.106 Y72.883 E.01682
G1 X65.425 Y73.048 E.01126
M204 S1000
G1 X65.316 Y73.41 F10800
M204 S800
;TYPE:External perimeter
G1 F1200
G1 X65.598 Y73.652 E.01165
G1 X65.823 Y73.971 E.01224
G1 X65.961 Y74.336 E.01223
G1 X66.004 Y74.724 E.01224
G1 X65.949 Y75.11 E.01222
G1 X65.8 Y75.471 E.01225
G1 X65.566 Y75.783 E.01223
G1 X65.262 Y76.027 E.01222
G1 X64.906 Y76.188 E.01225
G1 X64.521 Y76.255 E.01225
G1 X64.132 Y76.225 E.01223
G1 X63.763 Y76.099 E.01223
G1 X63.437 Y75.885 E.01223
G1 X63.174 Y75.596 E.01225
G1 X63.008 Y75.295 E.01078
G1 X62.9 Y74.872 E.01369
G1 X62.906 Y74.482 E.01223
G1 X63.008 Y74.105 E.01225
G1 X63.202 Y73.766 E.01225
G1 X63.473 Y73.486 E.01222
G1 X63.806 Y73.281 E.01226
G1 X64.179 Y73.166 E.01224
M73 Q3 S13
G1 X64.519 Y73.15 E.01067
G1 X64.951 Y73.227 E.01376
G1 X65.264 Y73.38 E.01092
M204 S1000
G1 X65.647 Y73.242 F10800
G1 X65.81 Y72.755
M204 S800
;TYPE:Perimeter
;WIDTH:0.568916
G1 F1200
G1 X66.191 Y73.07 E.02162
G1 X66.537 Y73.546 E.02574
G1 X66.76 Y74.108 E.02644
;WIDTH:0.568786
G1 X66.834 Y74.7 E.02609
G1 X66.822 Y74.827 E.00558
;WIDTH:0.560768
G1 X66.716 Y75.414 E.02568
;WIDTH:0.561438
G1 X66.468 Y75.956 E.0257
G1 X66.091 Y76.418 E.02571
;WIDTH:0.562018
G1 X65.613 Y76.774 E.02573
G1 X65.06 Y76.998 E.02575
;WIDTH:0.56119
G1 X64.47 Y77.079 E.02566
G1 X63.878 Y77.009 E.02569
;WIDTH:0.560596
G1 X63.321 Y76.795 E.02568
;WIDTH:0.560966
G1 X62.836 Y76.449 E.02566
G1 X62.452 Y75.993 E.02568
;WIDTH:0.561714
G1 X62.192 Y75.456 E.02574
G1 X62.076 Y74.872 E.02568
G1 X62.107 Y74.276 E.02574
G1 X62.286 Y73.708 E.02569
;WIDTH:0.560966
G1 X62.601 Y73.201 E.02571
G1 X63.031 Y72.789 E.02565
;WIDTH:0.560596
G1 X63.551 Y72.497 E.02567
;WIDTH:0.56119
G1 X64.127 Y72.343 E.02569
;WIDTH:0.571518
G1 X64.652 Y72.33 E.02308
G1 X65.165 Y72.425 E.02293
;WIDTH:0.568478
G1 X65.724 Y72.684 E.02692
;WIDTH:0.568916
G1 X65.763 Y72.716 E.00221
M204 S1000
; stop printing object MicroServo_9g_Gear_Base_V4_-_Final.stl id:1 copy 0
; printing object MicroServo_9g_Gear_Base_V4_-_Final.stl id:2 copy 0
;WIPE_START
G1 F8640
G1 X66.191 Y73.07 E-.12825
G1 X66.537 Y73.546 E-.13588
G1 X66.76 Y74.108 E-.13961
G1 X66.834 Y74.7 E-.13776
G1 X66.822 Y74.827 E-.02946
G1 X66.716 Y75.414 E-.13773
G1 X66.551 Y75.774 E-.09131
;WIPE_END
G1 Z.6 F720
G1 X65.462 Y141.743 F10800
G1 Z.2 F720
G1 E.8 F2100
M204 S800
;WIDTH:0.419999
G1 F1200
G1 X65.462 Y141.411 E.01041
G1 X65.636 Y140.733 E.02195
G1 X65.984 Y140.101 E.02262
G1 X66.469 Y139.585 E.0222
G1 X67.071 Y139.203 E.02235
G1 X67.752 Y138.981 E.02246
G1 X68.456 Y138.937 E.02212
G1 X69.137 Y139.067 E.02174
G1 X69.8 Y139.372 E.02288
G1 X70.356 Y139.832 E.02263
G1 X70.77 Y140.401 E.02206
G1 X70.966 Y140.895 E.01666
G1 X71.057 Y141.25 E.01149
G1 X71.116 Y141.83 E.01828
G1 X71.034 Y142.479 E.02051
G1 X70.77 Y143.147 E.02252
G1 X70.356 Y143.715 E.02204
G1 X69.798 Y144.177 E.02271
G1 X69.167 Y144.475 E.02188
G1 X68.456 Y144.61 E.02269
G1 X67.752 Y144.566 E.02212
G1 X67.071 Y144.345 E.02245
G1 X66.469 Y143.962 E.02237
G1 X65.984 Y143.446 E.0222
G1 X65.636 Y142.814 E.02262
G1 X65.462 Y142.136 E.02195
G1 X65.462 Y141.803 E.01044
M204 S1000
G1 X65.085 Y141.743 F10800
M204 S800
;TYPE:External perimeter
G1 F1200
G1 X65.085 Y141.363 E.01191
G1 X65.283 Y140.593 E.02493
G1 X65.676 Y139.878 E.02558
G1 X66.226 Y139.292 E.0252
G1 X66.909 Y138.859 E.02536
G1 X67.68 Y138.608 E.02542
G1 X68.479 Y138.558 E.0251
G1 X69.252 Y138.705 E.02467
G1 X70.002 Y139.05 E.02588
G1 X70.634 Y139.572 E.0257
G1 X71.103 Y140.218 E.02503
G1 X71.364 Y140.877 E.02222
G1 X71.431 Y141.203 E.01044
G1 X71.49 Y141.877 E.02121
G1 X71.402 Y142.573 E.022
G1 X71.103 Y143.33 E.02552
G1 X70.634 Y143.975 E.025
G1 X70.001 Y144.498 E.02575
G1 X69.284 Y144.836 E.02485
G1 X68.479 Y144.989 E.02569
G1 X67.68 Y144.939 E.0251
G1 X66.909 Y144.689 E.02541
G1 X66.226 Y144.255 E.02537
G1 X65.676 Y143.67 E.02518
G1 X65.283 Y142.954 E.02561
G1 X65.085 Y142.184 E.02493
G1 X65.085 Y141.803 E.01195
M204 S1000
G1 X65.403 Y141.536 F10800
;WIPE_START
G1 F8640
G1 X65.085 Y141.363 E-.1016
G1 X65.283 Y140.593 E-.18358
G1 X65.676 Y139.878 E-.18839
G1 X66.226 Y139.292 E-.18557
G1 X66.741 Y138.965 E-.14086
;WIPE_END
G1 Z.6 F720
G1 X69.312 Y140.149 F10800
G1 Z.2 F720
G1 E.8 F2100
M204 S800
;TYPE:Perimeter
G1 F1200
G1 X69.376 Y140.181 E.00224
G1 X69.737 Y140.503 E.01517
G1 X70.007 Y140.906 E.01521
G1 X70.169 Y141.362 E.01517
G1 X70.212 Y141.845 E.0152
G1 X70.134 Y142.323 E.01519
G1 X69.939 Y142.766 E.01518
G1 X69.64 Y143.147 E.01519
G1 X69.256 Y143.442 E.01518
G1 X68.81 Y143.632 E.0152
G1 X68.332 Y143.705 E.01516
G1 X67.85 Y143.657 E.01519
G1 X67.395 Y143.491 E.01519
G1 X66.996 Y143.216 E.01519
G1 X66.677 Y142.851 E.0152
G1 X66.512 Y142.55 E.01076
G1 X66.362 Y142.02 E.01727
G1 X66.374 Y141.461 E.01753
G1 X66.512 Y140.997 E.01518
G1 X66.761 Y140.581 E.0152
G1 X67.105 Y140.241 E.01517
G1 X67.523 Y139.996 E.01519
G1 X67.989 Y139.864 E.01519
G1 X68.413 Y139.851 E.0133
G1 X68.94 Y139.957 E.01685
G1 X69.259 Y140.121 E.01125
M204 S1000
G1 X69.149 Y140.484 F10800
M204 S800
;TYPE:External perimeter
G1 F1200
G1 X69.432 Y140.725 E.01165
G1 X69.657 Y141.044 E.01224
G1 X69.795 Y141.409 E.01223
G1 X69.838 Y141.797 E.01224
G1 X69.783 Y142.184 E.01226
G1 X69.634 Y142.544 E.01222
G1 X69.4 Y142.857 E.01225
G1 X69.095 Y143.101 E.01225
G1 X68.74 Y143.262 E.01222
G1 X68.355 Y143.329 E.01225
G1 X67.966 Y143.298 E.01224
G1 X67.597 Y143.172 E.01223
G1 X67.271 Y142.958 E.01223
G1 X67.008 Y142.67 E.01223
G1 X66.842 Y142.369 E.01078
G1 X66.734 Y141.945 E.01372
G1 X66.74 Y141.555 E.01223
G1 X66.842 Y141.179 E.01222
G1 X67.036 Y140.839 E.01227
G1 X67.307 Y140.559 E.01222
G1 X67.64 Y140.355 E.01224
G1 X68.013 Y140.24 E.01224
G1 X68.353 Y140.223 E.01067
G1 X68.784 Y140.3 E.01373
G1 X69.098 Y140.454 E.01097
M204 S1000
G1 X69.481 Y140.315 F10800
G1 X69.644 Y139.828
M204 S800
;TYPE:Perimeter
;WIDTH:0.568916
G1 F1200
G1 X70.025 Y140.143 E.02162
G1 X70.371 Y140.62 E.02577
G1 X70.593 Y141.182 E.02643
;WIDTH:0.568786
G1 X70.668 Y141.774 E.02609
G1 X70.656 Y141.901 E.00558
;WIDTH:0.560768
G1 X70.55 Y142.487 E.02564
;WIDTH:0.561438
G1 X70.301 Y143.029 E.02572
G1 X69.925 Y143.492 E.02572
;WIDTH:0.562018
G1 X69.447 Y143.847 E.0257
G1 X68.894 Y144.071 E.02575
;WIDTH:0.56119
G1 X68.304 Y144.152 E.02566
G1 X67.712 Y144.083 E.02568
;WIDTH:0.560596
G1 X67.155 Y143.868 E.0257
;WIDTH:0.560966
G1 X66.669 Y143.523 E.02567
G1 X66.285 Y143.067 E.02568
;WIDTH:0.561714
G1 X66.026 Y142.53 E.02572
G1 X65.909 Y141.945 E.02574
G1 X65.94 Y141.35 E.0257
G1 X66.12 Y140.781 E.02574
;WIDTH:0.560966
G1 X66.434 Y140.275 E.02565
G1 X66.865 Y139.863 E.02568
;WIDTH:0.560596
G1 X67.385 Y139.571 E.02567
;WIDTH:0.56119
G1 X67.961 Y139.417 E.02569
;WIDTH:0.571518
G1 X68.486 Y139.404 E.02308
G1 X68.999 Y139.499 E.02293
;WIDTH:0.568478
G1 X69.558 Y139.757 E.0269
;WIDTH:0.568916
G1 X69.597 Y139.79 E.00223
M204 S1000
; stop printing object MicroServo_9g_Gear_Base_V4_-_Final.stl id:2 copy 0
; printing object MicroServo_9g_Gear_Base_V4_-_Final.stl id:3 copy 0
;WIPE_START
G1 F8640
G1 X70.025 Y140.143 E-.1281
G1 X70.371 Y140.62 E-.13607
G1 X70.593 Y141.182 E-.13952
G1 X70.668 Y141.774 E-.13779
G1 X70.656 Y141.901 E-.02946
G1 X70.55 Y142.487 E-.1375
G1 X70.384 Y142.847 E-.09156
;WIPE_END
G1 Z.6 F720
G1 X121.669 Y150.711 F10800
G1 Z.2 F720
G1 E.8 F2100
M204 S800
;WIDTH:0.419999
G1 F1200
G1 X121.669 Y150.379 E.01041
G1 X121.843 Y149.701 E.02195
G1 X122.19 Y149.069 E.02261
G1 X122.675 Y148.553 E.0222
G1 X123.277 Y148.171 E.02235
G1 X123.958 Y147.949 E.02246
G1 X124.662 Y147.905 E.02212
G1 X125.343 Y148.035 E.02174
G1 X126.006 Y148.34 E.02288
G1 X126.563 Y148.8 E.02265
G1 X126.976 Y149.369 E.02204
G1 X127.172 Y149.863 E.01666
M73 P4 R12
G1 X127.263 Y150.218 E.01149
G1 X127.322 Y150.798 E.01828
G1 X127.24 Y151.447 E.02051
G1 X126.976 Y152.115 E.02252
G1 X126.563 Y152.683 E.02202
G1 X126.004 Y153.145 E.02274
G1 X125.373 Y153.442 E.02187
G1 X124.662 Y153.578 E.0227
G1 X123.958 Y153.534 E.02212
G1 X123.277 Y153.313 E.02245
G1 X122.675 Y152.93 E.02237
G1 X122.19 Y152.414 E.0222
G1 X121.843 Y151.782 E.02261
G1 X121.669 Y151.104 E.02195
G1 X121.669 Y150.771 E.01044
M204 S1000
G1 X121.291 Y150.711 F10800
M204 S800
;TYPE:External perimeter
G1 F1200
G1 X121.291 Y150.331 E.01191
G1 X121.489 Y149.561 E.02493
G1 X121.883 Y148.845 E.02562
G1 X122.432 Y148.26 E.02515
G1 X123.115 Y147.827 E.02536
G1 X123.887 Y147.576 E.02545
M73 Q4 S13
G1 X124.686 Y147.526 E.0251
G1 X125.459 Y147.673 E.02467
G1 X126.208 Y148.017 E.02584
G1 X126.84 Y148.54 E.02572
G1 X127.309 Y149.185 E.025
G1 X127.57 Y149.845 E.02225
G1 X127.637 Y150.171 E.01044
G1 X127.696 Y150.845 E.02121
G1 X127.608 Y151.541 E.022
G1 X127.309 Y152.298 E.02552
G1 X126.84 Y152.943 E.025
G1 X126.208 Y153.466 E.02572
G1 X125.49 Y153.804 E.02488
G1 X124.686 Y153.957 E.02566
G1 X123.887 Y153.907 E.0251
G1 X123.115 Y153.656 E.02545
G1 X122.432 Y153.223 E.02536
G1 X121.883 Y152.638 E.02515
G1 X121.489 Y151.922 E.02562
G1 X121.291 Y151.152 E.02493
G1 X121.291 Y150.771 E.01195
M204 S1000
G1 X121.609 Y150.504 F10800
;WIPE_START
G1 F8640
G1 X121.291 Y150.331 E-.1016
G1 X121.489 Y149.561 E-.18358
G1 X121.883 Y148.845 E-.1887
G1 X122.432 Y148.26 E-.18524
G1 X122.947 Y147.933 E-.14088
;WIPE_END
G1 Z.6 F720
G1 X125.519 Y149.117 F10800
G1 Z.2 F720
G1 E.8 F2100
M204 S800
;TYPE:Perimeter
G1 F1200
G1 X125.582 Y149.149 E.00222
G1 X125.944 Y149.471 E.01519
G1 X126.214 Y149.873 E.01518
G1 X126.375 Y150.33 E.01519
G1 X126.418 Y150.812 E.01517
G1 X126.34 Y151.29 E.01519
G1 X126.145 Y151.734 E.0152
G1 X125.846 Y152.115 E.01519
G1 X125.462 Y152.41 E.01518
G1 X125.017 Y152.6 E.01517
G1 X124.538 Y152.673 E.01519
G1 X124.056 Y152.625 E.01519
G1 X123.601 Y152.459 E.01519
G1 X123.202 Y152.184 E.01519
G1 X122.884 Y151.819 E.01518
G1 X122.718 Y151.518 E.01078
G1 X122.568 Y150.988 E.01727
G1 X122.581 Y150.429 E.01753
G1 X122.718 Y149.965 E.01517
