; generated by PrusaSlicer 2.6.1+MacOS-x64 on 2023-10-26 at 06:12:20 UTC


;
;
; 

; external perimeters extrusion width = 0.45mm
; perimeters extrusion width = 0.45mm
; infill extrusion width = 0.45mm
; solid infill extrusion width = 0.45mm
; top infill extrusion width = 0.40mm
; first layer extrusion width = 0.42mm

M73 P0 R13
M73 Q0 S13
M201 X1000 Y1000 Z200 E5000 ; sets maximum accelerations, mm/sec^2
M203 X200 Y200 Z12 E120 ; sets maximum feedrates, mm / sec
M204 S1250 T1250 ; sets acceleration (S) and retract acceleration (R), mm/sec^2
M205 X8.00 Y8.00 Z0.40 E4.50 ; sets the jerk limits, mm/sec
M205 S0 T0 ; sets the minimum extruding and travel feed rate, mm/sec
;TYPE:Custom
M862.3 P "MK3S" ; printer model check
M862.1 P0.4 ; nozzle diameter check
M115 U3.13.0 ; tell printer latest fw version
G90 ; use absolute coordinates
M83 ; extruder relative mode
M104 S215 ; set extruder temp
M140 S60 ; set bed temp
M190 S60 ; wait for bed temp
M109 S215 ; wait for extruder temp
G28 W ; home all without mesh bed level
G80 ; mesh bed leveling

G1 Z0.2 F720
G1 Y-3 F1000 ; go outside print area
G92 E0
G1 X60 E9 F1000 ; intro line
G1 X100 E12.5 F1000 ; intro line

G92 E0
M221 S95

; Don't change E values below. Excessive value can damage the printer.

M907 E538 ; set extruder motor current
G21 ; set units to millimeters
G90 ; use absolute coordinates
M83 ; use relative distances for extrusion
M900 K0.05 ; Filament gcode LA 1.5
M900 K30 ; Filament gcode LA 1.0
M107
;LAYER_CHANGE
;Z:0.2
;HEIGHT:0.2
;BEFORE_LAYER_CHANGE
G92 E0.0
;0.2


G1 E-.8 F2100
G1 Z.4 F720
;AFTER_LAYER_CHANGE
;0.2
G1 X113.255 Y95.312 F10800
G1 Z.2 F720
G1 E.8 F2100
M204 S800
;TYPE:Skirt/Brim
;WIDTH:0.42
G1 F1200
G1 X114.377 Y94.092 E.05197
G1 X115.42 Y93.164 E.04377
G1 X116.591 Y92.306 E.04552
G1 X117.962 Y91.498 E.0499
G1 X119.353 Y90.86 E.04798
G1 X120.86 Y90.347 E.04991
G1 X122.276 Y90.019 E.04557
G1 X123.587 Y89.84 E.04149
G1 X125.192 Y89.775 E.05036
G1 X126.656 Y89.864 E.04599
M73 Q1 S13
G1 X128.178 Y90.109 E.04834
G1 X129.541 Y90.466 E.04418
G1 X131.013 Y91.011 E.04922
G1 X132.264 Y91.618 E.0436
M73 P1 R13
G1 X133.519 Y92.38 E.04603
G1 X134.716 Y93.277 E.0469
G1 X135.877 Y94.345 E.04946
G1 X136.798 Y95.375 E.04332
G1 X137.623 Y96.487 E.04341
G1 X138.458 Y97.879 E.0509
G1 X139.061 Y99.16 E.04439
G1 X139.582 Y100.619 E.04858
G1 X139.952 Y102.125 E.04862
G1 X140.151 Y103.502 E.04362
G1 X140.225 Y105.042 E.04834
G1 X140.146 Y106.557 E.04757
G1 X139.909 Y108.089 E.04861
G1 X139.537 Y109.527 E.04657
G1 X139.036 Y110.899 E.0458
G1 X138.45 Y112.135 E.04289
G1 X137.702 Y113.395 E.04594
G1 X136.73 Y114.705 E.05115
G1 X135.728 Y115.803 E.04661
G1 X134.571 Y116.841 E.04874
G1 X133.377 Y117.713 E.04636
G1 X131.933 Y118.556 E.05243
G1 X130.631 Y119.146 E.04482
G1 X129.14 Y119.652 E.04937
G1 X127.733 Y119.978 E.04528
G1 X126.119 Y120.184 E.05102
G1 X124.854 Y120.225 E.03968
G1 X123.348 Y120.136 E.0473
G1 X121.775 Y119.88 E.04997
G1 X120.384 Y119.509 E.04514
G1 X119.044 Y119.013 E.0448
G1 X117.68 Y118.351 E.04754
G1 X116.382 Y117.552 E.04779
G1 X115.14 Y116.602 E.04903
G1 X114.061 Y115.591 E.04636
G1 X113.208 Y114.631 E.04027
G1 X112.231 Y113.294 E.05192
G1 X111.591 Y112.212 E.03942
G1 X110.867 Y110.664 E.05358
G1 X110.352 Y109.154 E.05002
G1 X110.028 Y107.77 E.04457
G1 X109.818 Y106.152 E.05116
G1 X109.775 Y104.801 E.04238
G1 X109.867 Y103.319 E.04656
G1 X110.101 Y101.859 E.04636
G1 X110.505 Y100.338 E.04934
G1 X110.998 Y99.021 E.04409
G1 X111.639 Y97.698 E.04609
G1 X112.432 Y96.407 E.0475
G1 X113.219 Y95.36 E.04107
M204 S1000
G1 X113.52 Y95.587 F10800
M204 S800
G1 F1200
G1 X114.64 Y94.363 E.05202
G1 X115.659 Y93.456 E.04277
G1 X116.795 Y92.623 E.04417
G1 X118.073 Y91.866 E.04657
G1 X119.429 Y91.235 E.04689
G1 X120.964 Y90.71 E.05087
G1 X122.348 Y90.389 E.04455
G1 X123.617 Y90.216 E.04016
G1 X125.186 Y90.152 E.04924
G1 X126.615 Y90.239 E.04489
G1 X128.098 Y90.477 E.04709
G1 X129.426 Y90.826 E.04305
G1 X130.864 Y91.358 E.04807
G1 X132.085 Y91.95 E.04255
G1 X133.305 Y92.691 E.04476
G1 X134.476 Y93.568 E.04587
G1 X135.608 Y94.608 E.0482
G1 X136.506 Y95.615 E.0423
G1 X137.308 Y96.694 E.04215
G1 X138.125 Y98.056 E.0498
G1 X138.711 Y99.3 E.04312
G1 X139.22 Y100.726 E.04747
G1 X139.583 Y102.199 E.04757
G1 X139.776 Y103.537 E.04239
G1 X139.848 Y105.036 E.04705
G1 X139.771 Y106.517 E.0465
G1 X139.539 Y108.016 E.04756
G1 X139.176 Y109.416 E.04535
G1 X138.688 Y110.754 E.04466
G1 X138.117 Y111.959 E.04181
G1 X137.39 Y113.183 E.04464
G1 X136.437 Y114.468 E.05016
G1 X135.461 Y115.536 E.04536
G1 X134.334 Y116.547 E.04747
G1 X133.17 Y117.398 E.04521
G1 X131.758 Y118.222 E.05126
G1 X130.488 Y118.797 E.04371
G1 X129.033 Y119.29 E.04817
G1 X127.664 Y119.608 E.04407
G1 X126.086 Y119.809 E.04988
G1 X124.857 Y119.848 E.03855
G1 X123.39 Y119.761 E.04608
G1 X121.851 Y119.511 E.04889
G1 X120.497 Y119.149 E.04394
G1 X119.194 Y118.666 E.04357
G1 X117.861 Y118.02 E.04644
G1 X116.596 Y117.242 E.04656
G1 X115.385 Y116.315 E.04782
G1 X114.333 Y115.33 E.04519
G1 X113.503 Y114.396 E.03918
G1 X112.548 Y113.089 E.05075
G1 X111.926 Y112.039 E.03826
G1 X111.217 Y110.524 E.05245
G1 X110.714 Y109.047 E.04892
G1 X110.398 Y107.7 E.04338
M73 Q2 S13
G1 X110.193 Y106.119 E.04999
G1 X110.152 Y104.806 E.04119
G1 X110.242 Y103.36 E.04543
G1 X110.471 Y101.935 E.04525
G1 X110.866 Y100.449 E.04821
M73 P2 R13
G1 X111.344 Y99.171 E.04278
G1 X111.97 Y97.878 E.04504
G1 X112.743 Y96.619 E.04632
G1 X113.484 Y95.635 E.03862
M204 S1000
;WIPE_START
G1 F8640
G1 X114.64 Y94.363 E-.39688
G1 X115.659 Y93.456 E-.31499
G1 X115.967 Y93.23 E-.08813
;WIPE_END
G1 Z.6 F720
G1 X115.568 Y97.286 F10800
G1 Z.2 F720
G1 E.8 F2100
M204 S800
G1 F1200
G1 X115.988 Y96.8 E.02014
G1 X116.518 Y96.252 E.0239
G1 X117.4 Y95.474 E.03688
G1 X118.361 Y94.782 E.03713
G1 X119.448 Y94.153 E.03938
G1 X120.579 Y93.645 E.03887
G1 X121.718 Y93.265 E.03765
G1 X122.87 Y93.002 E.03705
G1 X124.105 Y92.848 E.03902
G1 X125.32 Y92.819 E.03811
G1 X126.438 Y92.9 E.03515
G1 X127.692 Y93.115 E.03989
G1 X128.754 Y93.408 E.03454
G1 X129.895 Y93.84 E.03825
G1 X130.454 Y94.103 E.01937
G1 X131.078 Y94.438 E.02221
G1 X131.997 Y95.023 E.03416
G1 X132.996 Y95.807 E.03982
G1 X133.755 Y96.523 E.03272
G1 X134.47 Y97.333 E.03388
G1 X135.115 Y98.205 E.03401
G1 X135.694 Y99.16 E.03502
G1 X136.29 Y100.415 E.04356
G1 X136.695 Y101.578 E.03861
G1 X136.975 Y102.747 E.03769
G1 X137.133 Y103.885 E.03602
G1 X137.184 Y105.132 E.03913
G1 X137.114 Y106.316 E.03719
G1 X136.925 Y107.502 E.03766
G1 X136.624 Y108.651 E.03724
G1 X136.21 Y109.774 E.03753
G1 X135.699 Y110.83 E.03678
G1 X135.086 Y111.834 E.03688
G1 X134.353 Y112.808 E.03822
G1 X133.538 Y113.692 E.0377
G1 X132.65 Y114.484 E.03731
G1 X131.682 Y115.189 E.03755
G1 X130.629 Y115.807 E.03828
G1 X129.551 Y116.303 E.03721
G1 X128.371 Y116.709 E.03913
G1 X127.293 Y116.967 E.03475
G1 X125.998 Y117.143 E.04098
G1 X124.836 Y117.183 E.03646
G1 X123.727 Y117.118 E.03483
G1 X122.644 Y116.956 E.03433
G1 X122.014 Y116.813 E.02026
G1 X121.39 Y116.638 E.02032
G1 X120.168 Y116.186 E.04085
G1 X119.105 Y115.664 E.03713
G1 X118.093 Y115.039 E.03729
G1 X117.125 Y114.298 E.03822
G1 X116.259 Y113.489 E.03716
G1 X115.431 Y112.543 E.03942
G1 X114.749 Y111.586 E.03685
G1 X114.207 Y110.654 E.0338
G1 X113.65 Y109.433 E.04208
G1 X113.267 Y108.287 E.03789
G1 X113.004 Y107.142 E.03684
G1 X112.864 Y106.085 E.03343
G1 X112.817 Y104.756 E.0417
G1 X112.897 Y103.59 E.03665
G1 X113.092 Y102.414 E.03738
G1 X113.404 Y101.257 E.03757
G1 X113.826 Y100.142 E.03738
G1 X114.359 Y99.063 E.03773
G1 X114.997 Y98.043 E.03772
G1 X115.532 Y97.334 E.02785
M204 S1000
G1 X115.832 Y97.56 F10800
M204 S800
G1 F1200
G1 X116.263 Y97.058 E.02075
G1 X116.773 Y96.53 E.02302
G1 X117.629 Y95.775 E.03579
G1 X118.559 Y95.103 E.03598
G1 X119.612 Y94.493 E.03816
G1 X120.708 Y93.999 E.03769
G1 X121.811 Y93.63 E.03647
G1 X122.926 Y93.375 E.03586
G1 X124.124 Y93.225 E.03786
G1 X125.303 Y93.196 E.03698
G1 X126.383 Y93.273 E.03395
G1 X127.601 Y93.481 E.03874
G1 X128.629 Y93.763 E.03342
G1 X129.742 Y94.185 E.03732
G1 X130.28 Y94.437 E.01863
G1 X130.894 Y94.767 E.02186
G1 X131.787 Y95.336 E.0332
G1 X132.757 Y96.098 E.03868
G1 X133.478 Y96.779 E.0311
G1 X134.172 Y97.564 E.03285
G1 X134.797 Y98.408 E.03293
G1 X135.357 Y99.331 E.03385
G1 X135.937 Y100.549 E.0423
G1 X136.33 Y101.676 E.03742
G1 X136.603 Y102.808 E.03651
G1 X136.757 Y103.91 E.03489
G1 X136.807 Y105.12 E.03797
G1 X136.74 Y106.266 E.03599
G1 X136.558 Y107.416 E.03651
G1 X136.267 Y108.53 E.0361
G1 X135.867 Y109.618 E.03635
G1 X135.373 Y110.642 E.03565
G1 X134.78 Y111.615 E.03573
G1 X134.069 Y112.559 E.03705
G1 X133.28 Y113.417 E.03655
G1 X132.42 Y114.185 E.03615
G1 X131.483 Y114.868 E.03636
G1 X130.462 Y115.468 E.03713
G1 X129.419 Y115.95 E.03603
G1 X128.257 Y116.349 E.03852
G1 X127.214 Y116.598 E.03362
G1 X125.957 Y116.768 E.03977
G1 X124.849 Y116.807 E.03476
G1 X123.774 Y116.744 E.03376
G1 X122.721 Y116.587 E.03338
G1 X122.102 Y116.447 E.0199
G1 X121.499 Y116.277 E.01964
G1 X120.325 Y115.843 E.03924
G1 X119.295 Y115.338 E.03597
G1 X118.315 Y114.733 E.03611
G1 X117.376 Y114.016 E.03704
G1 X116.536 Y113.234 E.03598
G1 X115.721 Y112.302 E.03882
G1 X115.07 Y111.389 E.03516
G1 X114.546 Y110.489 E.03265
G1 X114.004 Y109.303 E.04089
G1 X113.632 Y108.194 E.03668
G1 X113.377 Y107.083 E.03574
M73 Q3 S13
G1 X113.24 Y106.062 E.0323
G1 X113.194 Y104.772 E.04047
G1 X113.27 Y103.643 E.03548
G1 X113.459 Y102.503 E.03623
G1 X113.76 Y101.381 E.03642
M73 P3 R13
G1 X114.168 Y100.3 E.03623
G1 X114.684 Y99.255 E.03654
G1 X115.303 Y98.263 E.03666
G1 X115.796 Y97.608 E.0257
M204 S1000
G1 X116.097 Y97.835 F10800
M204 S800
G1 F1200
G1 X116.537 Y97.316 E.02133
G1 X117.039 Y96.797 E.02264
G1 X117.857 Y96.075 E.03421
G1 X118.756 Y95.425 E.03478
G1 X119.776 Y94.833 E.03698
G1 X120.837 Y94.354 E.0365
G1 X121.905 Y93.996 E.03532
G1 X122.983 Y93.748 E.03468
G1 X124.162 Y93.6 E.03726
G1 X125.285 Y93.573 E.03522
G1 X126.33 Y93.647 E.03285
G1 X127.511 Y93.847 E.03756
G1 X128.504 Y94.119 E.03228
G1 X129.588 Y94.529 E.03634
G1 X130.106 Y94.772 E.01794
G1 X130.709 Y95.096 E.02146
G1 X131.576 Y95.649 E.03224
G1 X132.517 Y96.389 E.03753
G1 X133.201 Y97.036 E.02952
G1 X133.874 Y97.795 E.03181
G1 X134.479 Y98.612 E.03188
G1 X135.021 Y99.502 E.03267
G1 X135.585 Y100.683 E.04104
G1 X135.966 Y101.774 E.03623
G1 X136.231 Y102.87 E.03535
G1 X136.38 Y103.936 E.03375
G1 X136.43 Y105.107 E.03675
G1 X136.366 Y106.217 E.03486
G1 X136.19 Y107.33 E.03533
G1 X135.91 Y108.409 E.03495
G1 X135.523 Y109.463 E.0352
G1 X135.046 Y110.454 E.03448
G1 X134.472 Y111.396 E.03459
G1 X133.785 Y112.311 E.03588
G1 X133.021 Y113.142 E.03539
G1 X132.19 Y113.886 E.03497
G1 X131.284 Y114.548 E.03518
G1 X130.279 Y115.138 E.03654
G1 X129.27 Y115.603 E.03483
G1 X128.143 Y115.99 E.03736
G1 X127.136 Y116.229 E.03245
G1 X125.916 Y116.393 E.0386
G1 X124.862 Y116.43 E.03307
G1 X123.821 Y116.37 E.03269
G1 X122.797 Y116.217 E.03246
G1 X122.199 Y116.082 E.01922
G1 X121.608 Y115.916 E.01925
G1 X120.482 Y115.5 E.03764
G1 X119.485 Y115.012 E.0348
G1 X118.536 Y114.428 E.03494
G1 X117.625 Y113.733 E.03593
G1 X116.813 Y112.978 E.03476
G1 X116.011 Y112.061 E.0382
G1 X115.391 Y111.192 E.03347
G1 X114.885 Y110.323 E.03153
G1 X114.359 Y109.174 E.03962
G1 X113.998 Y108.1 E.03553
G1 X113.749 Y107.024 E.03463
G1 X113.617 Y106.039 E.03116
G1 X113.57 Y104.787 E.03928
G1 X113.644 Y103.695 E.03432
G1 X113.825 Y102.592 E.03505
G1 X114.116 Y101.505 E.03528
G1 X114.511 Y100.458 E.03509
G1 X115.009 Y99.446 E.03536
G1 X115.609 Y98.483 E.03558
G1 X116.061 Y97.883 E.02355
M204 S1000
G1 X116.362 Y98.109 F10800
M204 S800
G1 F1200
G1 X116.812 Y97.574 E.02192
G1 X117.295 Y97.075 E.02177
G1 X118.086 Y96.375 E.03312
G1 X118.954 Y95.746 E.03361
G1 X119.94 Y95.172 E.03577
G1 X120.966 Y94.708 E.03531
G1 X121.999 Y94.361 E.03417
G1 X123.039 Y94.121 E.03347
G1 X124.199 Y93.975 E.03666
G1 X125.268 Y93.949 E.03353
G1 X126.276 Y94.02 E.03168
G1 X127.42 Y94.213 E.03638
G1 X128.379 Y94.475 E.03117
G1 X129.435 Y94.874 E.03539
G1 X129.932 Y95.107 E.01721
G1 X130.524 Y95.425 E.02107
G1 X131.365 Y95.962 E.03129
G1 X132.277 Y96.68 E.03639
G1 X132.925 Y97.292 E.02795
G1 X133.576 Y98.027 E.03079
G1 X134.162 Y98.816 E.03082
G1 X134.685 Y99.674 E.03151
G1 X135.232 Y100.818 E.03976
G1 X135.602 Y101.872 E.03502
G1 X135.859 Y102.932 E.0342
G1 X136.004 Y103.961 E.03258
G1 X136.053 Y105.095 E.03559
G1 X135.992 Y106.168 E.0337
G1 X135.823 Y107.245 E.03418
G1 X135.553 Y108.288 E.03378
G1 X135.179 Y109.308 E.03406
G1 X134.718 Y110.266 E.03333
G1 X134.165 Y111.177 E.03341
G1 X133.501 Y112.063 E.03472
G1 X132.763 Y112.867 E.03422
G1 X131.945 Y113.599 E.03442
G1 X131.069 Y114.238 E.034
G1 X130.097 Y114.808 E.03533
G1 X129.122 Y115.256 E.03364
G1 X128.03 Y115.63 E.03619
G1 X127.059 Y115.86 E.03129
G1 X125.875 Y116.018 E.03745
G1 X124.875 Y116.053 E.03137
G1 X123.868 Y115.995 E.03163
G1 X122.873 Y115.848 E.03154
G1 X122.287 Y115.716 E.01883
G1 X121.718 Y115.555 E.01854
G1 X120.639 Y115.157 E.03606
G1 X119.675 Y114.686 E.03364
G1 X118.757 Y114.122 E.03378
G1 X117.875 Y113.45 E.03477
G1 X117.091 Y112.723 E.03352
G1 X116.302 Y111.82 E.0376
G1 X115.713 Y110.994 E.03181
G1 X115.224 Y110.158 E.03037
G1 X114.713 Y109.044 E.03843
G1 X114.363 Y108.005 E.03438
G1 X114.122 Y106.964 E.0335
G1 X113.993 Y106.015 E.03003
M73 P3 R12
G1 X113.947 Y104.802 E.03806
G1 X114.018 Y103.747 E.03315
G1 X114.192 Y102.68 E.0339
G1 X114.473 Y101.629 E.03411
G1 X114.853 Y100.616 E.03392
G1 X115.334 Y99.637 E.0342
G1 X115.916 Y98.703 E.03451
G1 X116.326 Y98.157 E.02141
M204 S1000
G1 X116.627 Y98.383 F10800
M204 S800
G1 F1200
G1 X117.088 Y97.832 E.02253
G1 X117.551 Y97.352 E.02091
G1 X118.315 Y96.674 E.03203
G1 X119.152 Y96.067 E.03242
G1 X120.105 Y95.512 E.03458
G1 X121.096 Y95.062 E.03413
G1 X122.093 Y94.726 E.03299
G1 X123.096 Y94.494 E.03228
G1 X124.237 Y94.351 E.03606
G1 X125.25 Y94.326 E.03177
M73 Q4 S13
G1 X126.223 Y94.393 E.03058
G1 X127.33 Y94.579 E.0352
G1 X128.255 Y94.831 E.03006
G1 X129.282 Y95.218 E.03441
G1 X129.758 Y95.441 E.01648
M73 P4 R12
G1 X130.339 Y95.754 E.02069
G1 X131.154 Y96.274 E.03031
G1 X132.036 Y96.971 E.03525
G1 X132.648 Y97.549 E.02639
G1 X133.279 Y98.258 E.02976
G1 X133.845 Y99.02 E.02976
G1 X134.349 Y99.846 E.03034
G1 X134.88 Y100.953 E.0385
G1 X135.238 Y101.97 E.03381
M73 Q4 S12
G1 X135.487 Y102.994 E.03304
G1 X135.628 Y103.987 E.03145
G1 X135.676 Y105.084 E.03443
G1 X135.618 Y106.119 E.0325
G1 X135.455 Y107.16 E.03304
G1 X135.195 Y108.167 E.03261
G1 X134.835 Y109.153 E.03291
G1 X134.391 Y110.079 E.0322
G1 X133.858 Y110.959 E.03226
G1 X133.216 Y111.816 E.03357
G1 X132.504 Y112.593 E.03304
G1 X131.715 Y113.3 E.03322
G1 X130.87 Y113.917 E.03281
G1 X129.914 Y114.478 E.03475
G1 X128.973 Y114.91 E.03247
G1 X127.917 Y115.27 E.03498
G1 X126.981 Y115.491 E.03015
G1 X125.835 Y115.643 E.03625
G1 X124.887 Y115.676 E.02974
G1 X123.914 Y115.621 E.03056
G1 X122.949 Y115.478 E.03059
G1 X122.384 Y115.351 E.01816
G1 X121.827 Y115.194 E.01814
G1 X120.796 Y114.814 E.03445
G1 X119.864 Y114.36 E.0325
G1 X118.977 Y113.816 E.03263
G1 X118.124 Y113.167 E.03361
G1 X117.368 Y112.467 E.0323
G1 X116.592 Y111.578 E.037
G1 X116.034 Y110.796 E.03012
G1 X115.563 Y109.991 E.02924
G1 X115.067 Y108.914 E.03718
G1 X114.728 Y107.911 E.0332
G1 X114.494 Y106.905 E.03238
G1 X114.37 Y105.992 E.02889
G1 X114.324 Y104.817 E.03687
G1 X114.391 Y103.798 E.03202
G1 X114.559 Y102.768 E.03272
G1 X114.829 Y101.753 E.03293
G1 X115.196 Y100.774 E.03278
G1 X115.66 Y99.828 E.03304
G1 X116.222 Y98.923 E.0334
G1 X116.591 Y98.431 E.01928
M204 S1000
G1 X116.893 Y98.658 F10800
M204 S800
G1 F1200
G1 X117.363 Y98.09 E.02312
G1 X117.807 Y97.629 E.02007
G1 X118.544 Y96.974 E.03092
G1 X119.351 Y96.388 E.03127
G1 X120.27 Y95.851 E.03337
G1 X121.226 Y95.417 E.03292
G1 X122.188 Y95.091 E.03185
G1 X123.153 Y94.866 E.03107
G1 X124.274 Y94.726 E.03542
G1 X125.233 Y94.703 E.03008
G1 X126.17 Y94.767 E.02945
G1 X127.241 Y94.946 E.03405
G1 X128.13 Y95.187 E.02888
G1 X129.129 Y95.563 E.03347
G1 X129.584 Y95.776 E.01575
G1 X130.155 Y96.082 E.02031
G1 X130.942 Y96.587 E.02932
G1 X131.796 Y97.261 E.03411
G1 X132.372 Y97.806 E.02486
